build/assets/images/bnt/icon-download.svg

<svg xmlns="http://www.w3.org/2000/svg" width="512" height="512" viewBox="0 0 512 512">
  <defs>
    <style>
      .cls-1 {
        fill: #ddd;
      }
    </style>
  </defs>
  <path id="icon-download" class="cls-1" d="M216,0h80a23.942,23.942,0,0,1,24,24V192h87.7c17.8,0,26.7,21.5,14.1,34.1L269.7,378.3a19.375,19.375,0,0,1-27.3,0L90.1,226.1C77.5,213.5,86.4,192,104.2,192H192V24A23.942,23.942,0,0,1,216,0ZM512,376V488a23.942,23.942,0,0,1-24,24H24A23.942,23.942,0,0,1,0,488V376a23.942,23.942,0,0,1,24-24H170.7l49,49a51.242,51.242,0,0,0,72.6,0l49-49H488A23.942,23.942,0,0,1,512,376ZM388,464a20,20,0,1,0-20,20A20.059,20.059,0,0,0,388,464Zm64,0a20,20,0,1,0-20,20A20.059,20.059,0,0,0,452,464Z"/>
</svg>

<svg aria-hidden="true" focusable="false" data-prefix="fas" data-icon="download" class="svg-inline--fa fa-download fa-w-16" role="img" xmlns="http://www.w3.org/2000/svg" viewBox="0 0 512 512"><path fill="#012c71" d="M216 0h80c13.3 0 24 10.7 24 24v168h87.7c17.8 0 26.7 21.5 14.1 34.1L269.7 378.3c-7.5 7.5-19.8 7.5-27.3 0L90.1 226.1c-12.6-12.6-3.7-34.1 14.1-34.1H192V24c0-13.3 10.7-24 24-24zm296 376v112c0 13.3-10.7 24-24 24H24c-13.3 0-24-10.7-24-24V376c0-13.3 10.7-24 24-24h146.7l49 49c20.1 20.1 52.5 20.1 72.6 0l49-49H488c13.3 0 24 10.7 24 24zm-124 88c0-11-9-20-20-20s-20 9-20 20 9 20 20 20 20-9 20-20zm64 0c0-11-9-20-20-20s-20 9-20 20 9 20 20 20 20-9 20-20z"></path></svg>
